public/images/logos/copilot.svg

<?xml version="1.0" encoding="UTF-8" standalone="no"?>
<svg height="32" stroke-miterlimit="10" style="clip-rule:evenodd;fill-rule:nonzero;stroke-linecap:round;stroke-linejoin:round" version="1.1" viewBox="0 0 31.999999 32" width="32" xml:space="preserve" id="svg9" sodipodi:docname="copilot.svg" inkscape:version="1.4-beta2 (9aaf4f34, 2024-07-30)" xmlns:inkscape="http://www.inkscape.org/namespaces/inkscape" xmlns:sodipodi="http://sodipodi.sourceforge.net/DTD/sodipodi-0.dtd" xmlns="http://www.w3.org/2000/svg" xmlns:svg="http://www.w3.org/2000/svg"><sodipodi:namedview id="namedview9" pagecolor="#ffffff" bordercolor="#000000" borderopacity="0.25" inkscape:showpageshadow="2" inkscape:pageopacity="0.0" inkscape:pagecheckerboard="0" inkscape:deskcolor="#d1d1d1" inkscape:zoom="2.853167" inkscape:cx="65.015472" inkscape:cy="43.285233" inkscape:window-width="1440" inkscape:window-height="790" inkscape:window-x="0" inkscape:window-y="0" inkscape:window-maximized="1" inkscape:current-layer="svg9" />
<defs id="defs1">









</defs>

<g id="g9" transform="matrix(0.61478888,0,0,0.61478888,3.1559012e-7,-7.7616041)"><path d="m 10.3844,15.8333 c -2.82743,1.8155 -5.02981,5.3869 -7.11314,11.6369 -2.797618,8.4227 -3.839284,14.4643 -2.976189,17.5893 0.744049,2.7381 3.184519,4.1667 7.202379,4.1667 2.14286,0 3.92855,0.9226 4.82145,2.4702 0.3869,0.6845 1.0714,2.5 1.5178,4.0476 0.9524,3.3929 1.3393,4.1965 2.5298,5.2084 1.6071,1.3393 2.4107,1.4285 13.5417,1.3095 10.0892,-0.0893 10.4464,-0.119 11.6369,-0.744 3.4821,-1.875 6.5773,-8.0655 9.4047,-18.8393 1.0417,-4.0476 1.3988,-8.5119 0.8334,-10.5357 -0.7143,-2.5298 -2.9167,-4.0477 -5.9524,-4.0477 -1.9345,0 -3.4524,-0.5059 -4.6131,-1.5476 -0.8631,-0.744 -1.2203,-1.4583 -2.0834,-4.1964 -0.5654,-1.8155 -1.0416,-3.4226 -1.0416,-3.631 0,-0.625 -1.4881,-2.3809 -2.6191,-3.0357 C 34.3724,15 34.2534,15 23.0332,15 H 11.7236 Z m 24.9702,12.6786 c -1.0417,0.4464 -2.2619,1.6071 -2.7679,2.5893 -0.2381,0.4167 -1.2202,3.6309 -2.2321,7.1428 -2.2322,7.7977 -2.8274,9.137 -4.5238,10.0893 -1.1607,0.6548 -1.6667,0.7441 -5.5953,0.8334 -4.1369,0.0595 -4.2857,0.0595 -3.4226,-0.4167 1.2203,-0.6548 2.2024,-1.6071 2.6786,-2.5298 0.2381,-0.4166 1.2798,-3.8095 2.3809,-7.5595 1.0715,-3.75 2.262,-7.3512 2.6191,-8.0059 0.4167,-0.7441 1.1309,-1.4286 1.9643,-1.875 1.1905,-0.625 1.6666,-0.6846 5.5059,-0.6548 3.5119,0 4.0774,0.0893 3.3929,0.3869 z" fill="#000000" fill-rule="nonzero" opacity="1" stroke="none" id="path1" /></g>


</svg>

<svg height="100%" stroke-miterlimit="10" style="fill-rule:nonzero;clip-rule:evenodd;stroke-linecap:round;stroke-linejoin:round;" version="1.1" viewBox="0 0 229.462 80" width="100%" xml:space="preserve" xmlns="http://www.w3.org/2000/svg" xmlns:xlink="http://www.w3.org/1999/xlink">
<defs/>
<clipPath id="ArtboardFrame">
<rect height="80" width="229.462" x="0" y="0"/>
</clipPath>
<g clip-path="url(#ArtboardFrame)" id="g9">
<path d="M10.3844 15.8333C7.55697 17.6488 5.35459 21.2202 3.27126 27.4702C0.473642 35.8929-0.568024 41.9345 0.295071 45.0595C1.03912 47.7976 3.47959 49.2262 7.49745 49.2262C9.64031 49.2262 11.426 50.1488 12.3189 51.6964C12.7058 52.3809 13.3903 54.1964 13.8367 55.744C14.7891 59.1369 15.176 59.9405 16.3665 60.9524C17.9736 62.2917 18.7772 62.3809 29.9082 62.2619C39.9974 62.1726 40.3546 62.1429 41.5451 61.5179C45.0272 59.6429 48.1224 53.4524 50.9498 42.6786C51.9915 38.631 52.3486 34.1667 51.7832 32.1429C51.0689 29.6131 48.8665 28.0952 45.8308 28.0952C43.8963 28.0952 42.3784 27.5893 41.2177 26.5476C40.3546 25.8036 39.9974 25.0893 39.1343 22.3512C38.5689 20.5357 38.0927 18.9286 38.0927 18.7202C38.0927 18.0952 36.6046 16.3393 35.4736 15.6845C34.3724 15 34.2534 15 23.0332 15L11.7236 15L10.3844 15.8333ZM35.3546 28.5119C34.3129 28.9583 33.0927 30.119 32.5867 31.1012C32.3486 31.5179 31.3665 34.7321 30.3546 38.244C28.1224 46.0417 27.5272 47.381 25.8308 48.3333C24.6701 48.9881 24.1641 49.0774 20.2355 49.1667C16.0986 49.2262 15.9498 49.2262 16.8129 48.75C18.0332 48.0952 19.0153 47.1429 19.4915 46.2202C19.7296 45.8036 20.7713 42.4107 21.8724 38.6607C22.9439 34.9107 24.1344 31.3095 24.4915 30.6548C24.9082 29.9107 25.6224 29.2262 26.4558 28.7798C27.6463 28.1548 28.1224 28.0952 31.9617 28.125C35.4736 28.125 36.0391 28.2143 35.3546 28.5119Z" fill="#000000" fill-rule="nonzero" opacity="1" stroke="none"/>
<path d="M81.8427 21.8155C76.9915 22.7381 72.557 25.9821 70.3843 30.1786C69.5808 31.7262 68.7474 34.8512 68.5093 37.1726C67.4974 46.5774 72.051 54.1369 80.2058 56.5476C84.0451 57.6786 89.4617 57.1131 92.9141 55.2679C96.0391 53.5714 98.8367 49.6131 99.6701 45.7143C100.206 43.0952 100.444 43.2738 96.3367 43.2738L92.6462 43.2738L92.3189 44.7619C91.6641 47.5595 89.7296 49.8214 87.4081 50.4464C85.682 50.9226 82.557 50.625 81.0689 49.8809C79.551 49.1071 77.7951 47.2024 77.0808 45.506C76.3367 43.75 75.801 40.0298 76.0391 37.9762C76.7534 31.6369 79.8784 28.0952 84.8189 28.0952C88.1522 28.0952 90.6522 29.7024 91.9617 32.619L92.5867 34.0476L96.1284 34.0476C99.6701 34.0476 99.6998 34.0476 99.6998 33.3631C99.6998 32.9762 99.432 31.875 99.1046 30.8929C97.1701 25.2976 92.4081 21.9941 85.8605 21.6964C84.4022 21.6369 82.5867 21.6964 81.8427 21.8155Z" fill="#000000" fill-rule="nonzero" opacity="1" stroke="none"/>
<path d="M162.497 25.2679L162.497 28.0952L165.92 28.0952L169.343 28.0952L169.343 25.2679L169.343 22.4405L165.92 22.4405L162.497 22.4405L162.497 25.2679Z" fill="#000000" fill-rule="nonzero" opacity="1" stroke="none"/>
<path d="M174.7 39.4048L174.7 56.369L178.122 56.369L181.545 56.369L181.545 39.4048L181.545 22.4405L178.122 22.4405L174.7 22.4405L174.7 39.4048Z" fill="#000000" fill-rule="nonzero" opacity="1" stroke="none"/>
<path d="M217.706 24.4643C217.616 24.5536 217.557 26.1905 217.557 28.125L217.557 31.6369L215.563 31.7262L213.539 31.8155L213.539 34.0476L213.539 36.2798L215.563 36.369L217.557 36.4583L217.557 44.1071C217.557 48.4226 217.706 52.2321 217.855 52.8571C218.241 54.2559 219.64 55.6548 221.069 56.1012C222.468 56.5179 227.021 56.7857 228.42 56.5476L229.462 56.3393L229.462 53.75L229.462 51.1607L227.527 51.1607C224.491 51.1607 224.581 51.369 224.462 43.2738L224.343 36.4286L226.902 36.4286L229.462 36.4286L229.462 34.0476L229.462 31.6667L226.932 31.6667L224.432 31.6667L224.343 28.006L224.253 24.375L221.069 24.3452C219.283 24.3452 217.795 24.4048 217.706 24.4643Z" fill="#000000" fill-rule="nonzero" opacity="1" stroke="none"/>
<path d="M113.152 31.3988C107.289 32.5298 103.569 37.4702 103.569 43.9583C103.599 48.4226 104.73 51.2798 107.497 53.8393C109.759 55.9226 111.753 56.6964 115.503 56.875C122.914 57.2917 127.795 53.3929 128.896 46.2202C129.819 40.4167 127.17 34.7321 122.527 32.5C119.789 31.1607 116.337 30.7738 113.152 31.3988ZM118.539 36.756C120.861 37.9464 122.081 40.4464 122.081 44.1369C122.081 49.1369 120.057 51.7559 116.188 51.7559C113.807 51.7559 112.497 50.8929 111.366 48.6309C110.652 47.2024 110.563 46.6369 110.563 44.1667C110.563 40.0298 111.396 38.1548 113.837 36.9048C114.878 36.369 117.587 36.2798 118.539 36.756Z" fill="#000000" fill-rule="nonzero" opacity="1" stroke="none"/>
<path d="M144.789 31.3393C143.063 31.8155 142.289 32.2321 141.099 33.3333L139.878 34.4048L139.878 33.0357L139.878 31.6667L136.605 31.6667L133.331 31.6667L133.331 48.3333L133.331 65L136.753 65L140.176 65L140.176 59.3155L140.176 53.6309L141.515 54.8214C145.176 58.0357 151.575 57.5893 154.997 53.869C157.289 51.3988 158.331 48.3333 158.331 44.2262C158.331 36.5476 154.313 31.4881 147.974 31.1905C146.724 31.131 145.295 31.2202 144.789 31.3393ZM148.718 37.2619C151.545 39.256 152.378 46.131 150.206 49.4048C148.241 52.3809 144.045 52.6488 141.694 49.9405C140.503 48.6309 140.087 46.9643 140.087 43.8393C140.087 40.119 141.366 37.619 143.747 36.6369C144.759 36.2202 147.795 36.6071 148.718 37.2619Z" fill="#000000" fill-rule="nonzero" opacity="1" stroke="none"/>
<path d="M195.533 31.3988C189.908 32.5 186.009 37.6488 186.009 43.9881C186.009 49.5536 188.48 53.6905 193.093 55.8631C194.997 56.7857 195.236 56.8155 198.807 56.8155C202.378 56.8155 202.616 56.7857 204.521 55.8631C209.462 53.5417 211.962 48.9286 211.486 42.9762C211.158 38.5119 209.372 35.2083 206.218 33.1548C203.42 31.3393 199.283 30.6548 195.533 31.3988ZM202.021 37.3214C202.557 37.7083 203.331 38.75 203.777 39.6429C205.265 42.6786 204.73 48.3036 202.736 50.2083C200.533 52.3214 197.259 52.4107 195.146 50.4464C193.956 49.3452 193.509 48.3929 193.152 46.0417C192.527 42.0536 193.777 38.244 196.128 36.9643C197.646 36.131 200.682 36.3095 202.021 37.3214Z" fill="#000000" fill-rule="nonzero" opacity="1" stroke="none"/>
<path d="M162.497 44.0179L162.497 56.369L165.92 56.369L169.343 56.369L169.343 44.0179L169.343 31.6667L165.92 31.6667L162.497 31.6667L162.497 44.0179Z" fill="#000000" fill-rule="nonzero" opacity="1" stroke="none"/>
</g>
</svg>
